X:12
T:Riddle. JJo.012, The
B:J.Johnson Choice Collection Vol 8 1758
Z:vmp.Simon Wilson 2013 www.village-music-project.org.uk
Z:Dance added by John Chambers 2017
M:C|
L:1/8
%Q:1/2=90
K:A
|: c |\
((3ABA) cA eBGE | ((3ABA) cA Bcdf |\
edca (ec)(ac) | (dB)(ec) A/A/AA :|
|: c |\
((3ABA) (ae) (fe) (ae) | (dc)(ac) B/B/B Bc |\
defga2ec | dBec A/A/AA :|
%%begintext align
%% Half figure down on your own Sides .|
%% Lead up to the Top and cast off :| Set 3
%% Sides the Man cast down the Wo up :||.
%% Set 3 Top and Bottom the Wo. cast
%% down and the Man up :||:
%%endtext
